X:312
T:Gypsy Rover
M:4/4
L:1/8
C:Composer??
K:G
"G"DD GG "D"A2 BA|"G"G2 DD "D"D4|"G"D2 GG "D"A2 Bc|"G"B4 "D"A3 D|
"G"GG G2 "D"A2 Bc|"Bm"d2 B2 "G"G2 GA|B3 B "Am"A2 GE|"G"D G2 E D4:||

%%newpage
%%stretchlast no

